X:48
T: An saol meallta, S. 107
N: I0547
O: Irland
S: O'SULLIVAN, Donal: Song of the Irish]
R: religises Lied]
M: 6/8
L: 1/16
K: G
GA | BBG2E2D4EG | A4A2A2B2
G2 | c2c2c2B2d2B2 | A4G2G2B2G2 | E6D4
D2 | E2G2G2G4
GA | B2G2E2D2D2EG | A4A2A2B2
GG | c4c2B2d2B2 | A4G2G2B2G2 |
E6D4D2 | E2G2G2G4
GA | B2G2B2d4d2 | e4e2d2B2G2 |
c2c2c2B2d2B2 | A4G2G2B2G
G | c2c2c2B2d2B2 | A4G2G2B2
G2 | c2c2c2B2d2B2 | A4G2G2B2G2 |
E6D4D2 | E2G2G2G4

@@@ Tune index: 7323
